app/dist/common/images/golden-sachs-etf-trust-goldman.svg

<svg fill="none" height="18" viewBox="0 0 18 18" width="18" xmlns="http://www.w3.org/2000/svg"><path d="m0 0h18v18h-18z" fill="#6e93be"/><path d="m6 9.33978.64754.53283v2.67549c0 .028.00224.0802-.16132.0802-1.0666-.0802-1.48622-1.148-1.48622-3.61794 0-2.42315.67-3.61802 1.49967-3.61802.57132 0 .69136.4057.99607 1.29963l.32711.97469h.64846v-2.50392c-.78642-.14044-1.51553-.16274-1.84265-.16274-2.57433 0-3.62866 1.36649-3.62866 4.03489 0 2.48111.9679 3.96511 3.53103 3.96511.62958 0 1.12379-.0551 1.93932-.2067v-3.7933h-2.47035zm6.5459-.95688-1.1785-.65983c-.6184-.34772-.9321-.76458-.9321-1.29963 0-.61522.4078-1.02093 1.0956-1.02093.6296 0 1.0698.35888 1.3835 1.32188l.3137.9423h.7719v-2.50942c-.7819-.10476-1.5953-.15724-2.0142-.15724-1.8641 0-2.98439.84159-2.98439 2.21036 0 .90502.49067 1.50465 1.38689 1.97949l1.165.62637c.6767.35895.9903.82255.9903 1.46235 0 .7891-.5018 1.3799-1.2009 1.3799-.6632 0-1.2815-1.0223-1.79461-2.6585h-.54809v2.8324c.72368.127 1.4801.1676 2.0044.1676 1.9112 0 2.9956-.8631 2.9956-2.4392.0022-1.02319-.4638-1.62282-1.4541-2.1779z" fill="#fff"/></svg>

<!-- by TradingView --><svg width="18" height="18" viewBox="0 0 18 18" fill="none" xmlns="http://www.w3.org/2000/svg">
<rect width="18" height="18" fill="#6E93BE"/>
<path d="M6 9.33978L6.64754 9.87261V12.5481C6.64754 12.5761 6.64978 12.6283 6.48622 12.6283C5.41962 12.5481 5 11.4803 5 9.01036C5 6.58721 5.67 5.39234 6.49967 5.39234C7.07099 5.39234 7.19103 5.79804 7.49574 6.69197L7.82285 7.66666H8.47131V5.16274C7.68489 5.0223 6.95578 5 6.62866 5C4.05433 5 3 6.36649 3 9.03489C3 11.516 3.9679 13 6.53103 13C7.16061 13 7.65482 12.9449 8.47035 12.7933V9H6V9.33978ZM12.5459 8.3829L11.3674 7.72307C10.749 7.37535 10.4353 6.95849 10.4353 6.42344C10.4353 5.80822 10.8431 5.40251 11.5309 5.40251C12.1605 5.40251 12.6007 5.76139 12.9144 6.72439L13.2281 7.66669H14V5.15727C13.2181 5.05251 12.4047 5.00003 11.9858 5.00003C10.1217 5.00003 9.00141 5.84162 9.00141 7.21039C9.00141 8.11541 9.49208 8.71504 10.3883 9.18988L11.5533 9.81625C12.23 10.1752 12.5436 10.6388 12.5436 11.2786C12.5436 12.0677 12.0418 12.6585 11.3427 12.6585C10.6795 12.6585 10.0612 11.6362 9.54809 10H9V12.8324C9.72368 12.9594 10.4801 13 11.0044 13C12.9156 13 14 12.1369 14 10.5608C14.0022 9.53761 13.5362 8.93798 12.5459 8.3829Z" fill="white"/>
</svg>
